tools/dat/svg/1.svg

<svg xmlns="http://www.w3.org/2000/svg" 
     xmlns:xlink="http://www.w3.org/1999/xlink" width='230mm' height='90mm' viewBox='0 0 230 90' version='1.1'>
		<path stroke-linecap="round" stroke-width='1' fill='transparent' stroke='#00ff00' d='M -25 0 L -25 247 M -5 0 L -5 247 M 15 0 L 15 247 M 35 0 L 35 247 M 55 0 L 55 247 M 75 0 L 75 247 M 95 0 L 95 247 M 115 0 L 115 247 M 135 0 L 135 247 M 155 0 L 155 247 M 175 0 L 175 247 M 195 0 L 195 247 M 215 0 L 215 247 M 0 -25 L 632 -25 M 0 -5 L 632 -5 M 0 15 L 632 15 M 0 35 L 632 35 M 0 55 L 632 55 M 0 75 L 632 75 '/>
		<path stroke-linecap="round" stroke-width='1' fill='transparent' stroke='#00ff00' d='M 55 55 L 55 35 M 75 35 L 55 35 M 95 55 L 75 35 M 95 55 L 95 35 M 95 75 L 95 55 '/>
		<rect stroke-width='1' x='51.59574468085106' y='31.595744680851062' width='6.808510638297872' height='6.808510638297872' fill='#00ff00' stroke='#00ff00' />
		<path  stroke-width='1' fill='#ff0000' stroke='#00ff00' d='M 76.88091280733592 35.18885438199983 A 3.2 3.2 0 1 0 73.11908719266408 35.18885438199983 L 71.8 40.599999999999994 L 78.2 40.599999999999994 Z '/>
		<path  stroke-width='1' fill='#ff0000' stroke='#00ff00' d='M 95 48.6 L 100.5424 58.2 L 89.4576 58.2 Z '/>
		<path  stroke-width='1' fill='#00ff00' stroke='#00ff00' d='M 95 80.76 L 92.12 75 C 89.24 69.24, 100.76 69.24, 97.88 75 Z '/>
		<circle stroke-width='1' cx='95' cy='35' r='6.4' fill='#ff0000' stroke='#00ff00' />
		<circle stroke-width='1' cx='95' cy='35' r='4.268800000000001' fill='#ff0000' stroke='#00ff00' />
		<circle stroke-width='1' cx='95' cy='35' r='2.1376000000000004' fill='#ff0000' stroke='#00ff00' />
		<path  stroke-width='1' fill='#ff0000' stroke='#00ff00' d='M 53.56 49.88 L 52.12 55.64 C 49.24 61.4 , 60.76 61.4 , 57.88 55.64 L 56.44 49.88 '/>
		<path  stroke-width='1' fill='#ff0000' stroke='#00ff00' d='M 15 8.6 C 9.879999999999999 11.8 , 9.879999999999999 18.2 , 15 21.4 C 20.12 18.2 , 20.12 11.8 , 15 8.6 Z  '/>
		<circle stroke-width='1' cx='15' cy='15' r='1.6' fill='#00ff00' stroke='#00ff00' />
		<path  stroke-width='1' fill='#ff0000' stroke='#00ff00' d='M 33.56 9.879999999999999 L 32.12 15.64 C 29.24 21.400000000000002 , 40.76 21.400000000000002 , 37.88 15.64 L 36.44 9.879999999999999 '/>
		<path  stroke-width='1' fill='#ff0000' stroke='#00ff00' d='M 50.2 10.2 L 59.8 10.2 C 55.8 15 , 55.8 15 , 59.8 19.8 L 50.2 19.8 C 54.2 15 , 54.2 15 , 50.2 10.2 Z  '/>
		<path  stroke-width='1' fill='#ff0000' stroke='#00ff00' d='M 77.83687943262412 8.75886524822695 L 77.83687943262412 17.836879432624112 L 68.75886524822694 17.836879432624112 Z  '/>
		<path  stroke-width='1' fill='#ff0000' stroke='#00ff00' d='M 93.4 10.2 C 91.8 14.68 94.68 14.68 88.6 19.8 C 95 19.8 94.68 14.68 95 16.6 C 95.32 14.68 95 19.8 101.4 19.8 C 95.32 14.68 98.2 14.68 96.6 10.2 Z  '/>
		<circle stroke-width='1' cx='135' cy='35' r='4.8' fill='#ff0000' stroke='#00ff00' />
		<path  stroke-width='1' fill='#00ff00' stroke='transparent' d='M 130.2 35 A 4.8 4.8 0 0 0 139.8 35Z '/>
		<circle stroke-width='1' cx='132.85' cy='35' r='2.15' fill='#00ff00' stroke='transparent' />
		<circle stroke-width='1' cx='137.15' cy='35' r='2.15' fill='#ff0000' stroke='transparent' />
		<path  stroke-width='1' fill='#ff0000' stroke='#00ff00' d='M 150.2 30.2 L 159.8 30.2 L 159.8 39.8 L 150.2 39.8 Z  M 151.832 31.832 L 158.168 31.832 L 158.168 38.168 L 151.832 38.168 Z  '/>
		<circle stroke-width='1' cx='175' cy='35' r='6.4' fill='#ff0000' stroke='#00ff00' />
		<path  stroke-width='1' fill='#ff0000' stroke='#00ff00' d='M 168.6 35 L 181.4 35 '/>
		<circle stroke-width='1' cx='175' cy='31.8' r='1.28' fill='#00ff00' stroke='transparent' />
		<circle stroke-width='1' cx='175' cy='38.2' r='1.28' fill='#00ff00' stroke='transparent' />
		<path  stroke-width='1' fill='#ff0000' stroke='#00ff00' d='M 201.4 35 A 6.4 6.4 0 1 0 201.4 35 '/>
		<path  stroke-width='1' fill='#ff0000' stroke='#00ff00' d='M 195 32.86666666666667 A 2.1333333333333333 2.1333333333333333 0 0 0 195 37.13333333333333 M 195 41.4 A 4.266666666666667 4.266666666666667 0 0 0 195 32.86666666666667 M 201.4 35 A 6.4 6.4 0 1 0 195 41.4 '/>
		<path  stroke-width='1' fill='#ff0000' stroke='#00ff00' d='M 210.46099290780143 30.46099290780142 L 219.53900709219857 30.46099290780142 L 219.53900709219857 39.53900709219858 L 210.46099290780143 39.53900709219858  Z  M 211.9739952718676 32.730496453900706 L 218.0260047281324 32.730496453900706 M 211.9739952718676 35 L 218.0260047281324 35 M 211.9739952718676 37.269503546099294 L 218.0260047281324 37.269503546099294 '/>
	</svg>

<svg xmlns="http://www.w3.org/2000/svg" width="230mm" height="90mm" viewBox="0 0 230 90"><path stroke-linecap="round" fill="transparent" stroke="#0f0" d="M-25 0v247M-5 0v247M15 0v247M35 0v247M55 0v247M75 0v247M95 0v247M115 0v247M135 0v247M155 0v247M175 0v247M195 0v247M215 0v247M0-25h632M0-5h632M0 15h632M0 35h632M0 55h632M0 75h632M55 55V35m20 0H55m40 20L75 35m20 20V35m0 40V55"/><path fill="#0f0" stroke="#0f0" d="M51.596 31.596h6.809v6.809h-6.809z"/><path fill="red" stroke="#0f0" d="M76.88 35.189a3.2 3.2 0 1 0-3.76 0L71.8 40.6h6.4zM95 48.6l5.542 9.6H89.458z"/><path fill="#0f0" stroke="#0f0" d="M95 80.76L92.12 75c-2.88-5.76 8.64-5.76 5.76 0z"/><circle cx="95" cy="35" r="6.4" fill="red" stroke="#0f0"/><circle cx="95" cy="35" r="4.269" fill="red" stroke="#0f0"/><circle cx="95" cy="35" r="2.138" fill="red" stroke="#0f0"/><path fill="red" stroke="#0f0" d="M53.56 49.88l-1.44 5.76c-2.88 5.76 8.64 5.76 5.76 0l-1.44-5.76M15 8.6c-5.12 3.2-5.12 9.6 0 12.8 5.12-3.2 5.12-9.6 0-12.8z"/><circle cx="15" cy="15" r="1.6" fill="#0f0" stroke="#0f0"/><path fill="red" stroke="#0f0" d="M33.56 9.88l-1.44 5.76c-2.88 5.76 8.64 5.76 5.76 0l-1.44-5.76M50.2 10.2h9.6c-4 4.8-4 4.8 0 9.6h-9.6c4-4.8 4-4.8 0-9.6zM77.837 8.759v9.078h-9.078zM93.4 10.2c-1.6 4.48 1.28 4.48-4.8 9.6 6.4 0 6.08-5.12 6.4-3.2.32-1.92 0 3.2 6.4 3.2-6.08-5.12-3.2-5.12-4.8-9.6z"/><circle cx="135" cy="35" r="4.8" fill="red" stroke="#0f0"/><path fill="#0f0" stroke="transparent" d="M130.2 35a4.8 4.8 0 0 0 9.6 0z"/><circle cx="132.85" cy="35" r="2.15" fill="#0f0" stroke="transparent"/><circle cx="137.15" cy="35" r="2.15" fill="red" stroke="transparent"/><path fill="red" stroke="#0f0" d="M150.2 30.2h9.6v9.6h-9.6zm1.632 1.632h6.336v6.336h-6.336z"/><circle cx="175" cy="35" r="6.4" fill="red" stroke="#0f0"/><path fill="red" stroke="#0f0" d="M168.6 35h12.8"/><circle cx="175" cy="31.8" r="1.28" fill="#0f0" stroke="transparent"/><circle cx="175" cy="38.2" r="1.28" fill="#0f0" stroke="transparent"/><path fill="red" stroke="#0f0" d="M195 32.867a2.133 2.133 0 0 0 0 4.266m0 4.267a4.267 4.267 0 0 0 0-8.533M201.4 35a6.4 6.4 0 1 0-6.4 6.4M210.461 30.461h9.078v9.078h-9.078zm1.513 2.27h6.052M211.974 35h6.052m-6.052 2.27h6.052"/></svg>
